packages/core/src/Assets/SvgComponents/header/our-story.svg

<svg width="24" height="24" viewBox="0 0 24 24" fill="none" xmlns="http://www.w3.org/2000/svg">
<path d="M17.6471 3C17.8501 3 18.0147 3.16124 18.0147 3.36014L18.0135 14.25H20.4635C20.608 14.25 20.7341 14.3437 20.7817 14.479L20.7971 14.5394L20.8763 15.1269L20.8989 15.3301C20.9808 16.1065 21.0194 16.8958 20.9904 17.6364C20.9144 19.5753 20.3968 20.8402 19.2706 20.9779C19.2291 20.9922 19.1828 21.0002 19.131 21L5.28863 20.9495C4.13241 20.9326 3.17413 20.0874 3.02041 18.9722L3.00627 18.8424L3 18.7023V3.36014C3 3.16124 3.1646 3 3.36765 3H17.6471ZM20.1711 14.9439L18.0135 14.9438L18.0142 16.6319C17.9716 17.4469 18.0702 18.2623 18.2989 19.0279L18.3907 19.3126L18.5331 19.6362C18.7551 20.1114 18.911 20.2714 19.146 20.28L19.1772 20.284C19.8785 20.1479 20.2519 19.1993 20.3142 17.6085C20.3417 16.9066 20.3047 16.1498 20.226 15.4048C20.219 15.3378 20.2117 15.2726 20.2044 15.2094L20.1711 14.9439ZM17.2794 3.71957H3.73456L3.73489 18.6855L3.74004 18.7973C3.80403 19.5947 4.47897 20.2173 5.29548 20.2293L17.928 20.2755C17.8984 20.2256 17.8695 20.173 17.8414 20.1174C17.38 19.2053 17.1672 17.6055 17.2795 15.1461L17.2794 3.71957ZM11.76 15.7614C11.8925 15.7614 12 15.8688 12 16.0014V16.2486C12 16.3812 11.8925 16.4886 11.76 16.4886H6.99C6.85745 16.4886 6.75 16.3812 6.75 16.2486V16.0014C6.75 15.8688 6.85745 15.7614 6.99 15.7614H11.76ZM13.26 12.7614C13.3925 12.7614 13.5 12.8688 13.5 13.0014V13.2486C13.5 13.3812 13.3925 13.4886 13.26 13.4886H6.99C6.85745 13.4886 6.75 13.3812 6.75 13.2486V13.0014C6.75 12.8688 6.85745 12.7614 6.99 12.7614H13.26ZM13.26 9.01136C13.3925 9.01136 13.5 9.11881 13.5 9.25136V9.49864C13.5 9.63119 13.3925 9.73864 13.26 9.73864H6.99C6.85745 9.73864 6.75 9.63119 6.75 9.49864V9.25136C6.75 9.11881 6.85745 9.01136 6.99 9.01136H13.26ZM9.135 6.38636C9.26755 6.38636 9.375 6.49381 9.375 6.62636V6.87364C9.375 7.00619 9.26755 7.11364 9.135 7.11364H6.615C6.48245 7.11364 6.375 7.00619 6.375 6.87364V6.62636C6.375 6.49381 6.48245 6.38636 6.615 6.38636H9.135Z" fill="url(#paint0_linear)"/>
<defs>
<linearGradient id="paint0_linear" x1="3" y1="21" x2="21" y2="3" gradientUnits="userSpaceOnUse">
<stop stop-color="#FF444F"/>
<stop offset="1" stop-color="#FF6444"/>
</linearGradient>
</defs>
</svg>

<svg width="24" height="24" fill="none" xmlns="http://www.w3.org/2000/svg"><path d="M17.647 3c.203 0 .368.161.368.36l-.002 10.89h2.45c.145 0 .271.094.319.229l.015.06.08.588.022.203c.082.777.12 1.566.091 2.306-.076 1.94-.593 3.204-1.72 3.342a.42.42 0 01-.139.022l-13.842-.05c-1.157-.017-2.115-.863-2.269-1.978l-.014-.13-.006-.14V3.36c0-.199.165-.36.368-.36h14.28zm2.524 11.944h-2.157v1.688c-.042.815.056 1.63.285 2.396l.092.285.142.323c.222.475.378.635.613.644l.031.004c.701-.136 1.075-1.085 1.137-2.675a15.547 15.547 0 00-.11-2.4l-.033-.265zM17.28 3.72H3.735v14.966l.005.111c.064.798.739 1.42 1.555 1.432l12.633.047a2.672 2.672 0 01-.087-.159c-.461-.912-.674-2.512-.562-4.97V3.72zM11.76 15.76a.24.24 0 01.24.24v.248a.24.24 0 01-.24.24H6.99a.24.24 0 01-.24-.24V16a.24.24 0 01.24-.24h4.77zm1.5-3a.24.24 0 01.24.24v.248a.24.24 0 01-.24.24H6.99a.24.24 0 01-.24-.24V13a.24.24 0 01.24-.24h6.27zm0-3.75a.24.24 0 01.24.24V9.5a.24.24 0 01-.24.24H6.99a.24.24 0 01-.24-.24V9.25a.24.24 0 01.24-.24h6.27zM9.135 6.386a.24.24 0 01.24.24v.248a.24.24 0 01-.24.24h-2.52a.24.24 0 01-.24-.24v-.248a.24.24 0 01.24-.24h2.52z" fill="url(#paint0_linear)"/><defs><linearGradient id="paint0_linear" x1="3" y1="21" x2="21" y2="3" gradientUnits="userSpaceOnUse"><stop stop-color="#FF444F"/><stop offset="1" stop-color="#FF6444"/></linearGradient></defs></svg>
